X:1
T:[ID 2-26b]
T:[ID 2-26b]
T:Bezeichnung standardisiert: Menuett Menuet \"Ahnlich in dieser Quelle: ID 2-42a (Anm. S. Wascher);
T:Urheber unbekannt Datum in der hier transkribierten schriftlichen Quelle: 1767
C:Urheber unbekannt
C:Datum in der hier transkribierten schriftlichen Quelle: 1767
%%score 1 2
L:1/8
M:3/4
K:D
V:1 treble 
V:2 treble 
V:1
 d3 fec | d3 fec | d2 f2 a2 | g2 eg f2 | A3 GFG | Aa^gfed | c2 BAB^G | A6 :: A4 (3FED | BGDB, G,2 | %10
 B4 (3^GFE | cAEC A,2 | e4 (3cBA | fdAF Da | g2 f2 ec | d6 :| %16
V:2
 !fermata!F3 AGE | F3 AGE | F2 d2 f2 | e2 ce d2 | F3 EDE | CcBA^GF | E2 DCDB, | C6 :: F4 (3FED | %9
 GG,B,D B,2 | ^G4 (3GFE | AA,CE C2 | c4 (3cBA | dAFDFf | e2 d2 GE | F6 :| %16

